!!!COM: Bach, Johann Sebastian
!!!OPR: Joh. Seb. Bachs vierstimmige Choralgesänge
!!!XEN: Four-part Chorales
!!!OTL: Chorale 32. Da der Herr Christ zu Tische sass
!!!SCT: BWV 285
!!!SCA: Thematisch-systematisches Verzeichnis der musikalischen Werke Johann Sebastian Bach: Bach-Werke-Verzeichnis (Schmieder)
!!!YOR: Bach Gesellschaft Edition xxxix
!!!ENC: Steven Rasmussen
!!!CDT: 1685/3//-1750/7/28/
!!!OCY: Deutschland
!!!YEC: Copyright (c) 1994, 2000 Center for Computer Assisted Research in the Humanities
!!!YEM: Rights to all derivative editions reserved
!!!YEN: United States of America
**kern	**silbe	**kern	**kern	**kern	**silbe
*I:[BASSO]	*I:[BASSO]	*I:[TENORE]	*I:[ALTO]	*I:[SOPRANO]	*I:[SOPRANO]
*clefF4	*	*clefGv2	*clefG2	*clefG2	*
*k[b-e-a-]	*	*k[b-e-a-]	*k[b-e-a-]	*k[b-e-a-]	*
*c:	*	*c:	*c:	*c:	*
*M4/4	*	*M4/4	*M4/4	*M4/4	*
4C	.	4c	8e-L	4g	Da
.	.	.	8fJ	.	.
=1	=1	=1	=1	=1	=1
4BBn	.	4.d	8gL	4g	der
.	.	.	8fJ	.	.
4C	.	.	4e-	4g	Herr
.	.	8c	.	.	.
4D	.	4B-	4f	4b-	Christ
4E-	.	4B-	8fL	4g	zu
.	.	.	8e-J	.	.
=2	=2	=2	=2	=2	=2
4E-	.	8B-L	4g	4b-	Ti-
.	.	8cJ	.	.	.
4D	.	4d	4f	4bn	-sche
4C;	.	4G;	4e-;	4cc;	sass,
4BBn	zu-	4d	4g	4dd	zu-
=3	=3	=3	=3	=3	=3
[2C	-letzt	8cL	4g	8ee-L	-letzt
.	.	8dJ	.	8ddJ	.
.	.	8e-L	4g	8ccL	das
.	.	8dJ	.	8ddJ	.
8C]	.	4c	4g	4ee-	O-
8E-	das	.	.	.	.
8G	O-	4Bn	4g	4dd	-ster-
8F	-ster-	.	.	.	.
=4	=4	=4	=4	=4	=4
4E-	-lÃ¤mm-	8cL	4g	4cc	-lÃ¤mm-
.	.	8BnJ	.	.	.
4A-	-lein	4c	8gL	4cc	-lein
.	.	.	8fJ	.	.
4G;	ass,	4d;	4g;	4bn;	ass,
8GL	.	4B	4d	4g	und
8FJ	.	.	.	.	.
=5	=5	=5	=5	=5	=5
8E-L	.	4c	4g	8ccL	wollt'
8DJ	.	.	.	8ddJ	.
4C	.	4c	4g	4ee-	von
8FL	.	8cL	8a-L	4dd	hin-
8GJ	.	8BnJ	8gJ	.	.
4A-	.	4c	8gL	4cc	-nen
.	.	.	8fJ	.	.
=6	=6	=6	=6	=6	=6
4G	.	4d	8gL	2bn	schei-
.	.	.	8a-	.	.
4GG	.	4G	8g	.	.
.	.	.	8fJ	.	.
4C;	.	4G;	4e-;	4cc;	-den,
8CL	.	4c	8e-L	4g	sein'n
8DJ	.	.	8fJ	.	.
=7	=7	=7	=7	=7	=7
4.E-	.	8cL	4g	4g	Jün-
.	.	8GJ	.	.	.
.	.	4c	4f	4an	-gern
16FLL	.	.	.	.	.
16E-JJ	.	.	.	.	.
8DL	.	8dL	8fL	4b-	er
8E-J	.	8cJ	8gJ	.	.
4F	.	8cL	8gL	4a-	treu-
.	.	16dL	8fJ	.	.
.	.	16cJJ	.	.	.
=8	=8	=8	=8	=8	=8
8GL	.	8B-L	8fL	4g	-lich
8A-J	.	8cJ	8e-J	.	.
8B-L	.	8FL	8e-L	4f	be-
8BB-J	.	16B-L	8dJ	.	.
.	.	16A-JJ	.	.	.
4C;	.	4G;	4e-;	4e-;	-fahl,
4C	.	8GL	4c	4e-	dass
.	.	8A-J	.	.	.
=9	=9	=9	=9	=9	=9
8GGL	.	8B-L	8e-L	4b-	man
8FFJ	.	8A-J	8fJ	.	.
4EE-	.	8B-L	4g	4b-	all-
.	.	8d-J	.	.	.
8AA-L	.	8cL	4e-	4cc	-zeit
8GGJ	.	8B-J	.	.	.
4FF	.	4A-	4f	4dd	ver-
=10	=10	=10	=10	=10	=10
8EE-L	.	4B-	4g	4ee-	-künd'-
8GGJ	.	.	.	.	.
4BB-	.	4B-	4f	4dd	-gen
4E-;	.	4B-;	4g;	4ee-;	soll
4C	.	4c	8gL	4ee-	sein'n
.	.	.	8a-J	.	.
=11	=11	=11	=11	=11	=11
8CL	.	4d	8a-L	4ff	Tod
8BBnJ	.	.	8gJ	.	.
4C	.	8dL	4g	4ee-	und
.	.	8cJ	.	.	.
4D	.	8cL	8fL	4dd	bit-
.	.	8BnJ	8a-J	.	.
8E-L	.	8cL	8gL	4cc	-ter
8FJ	.	8A-J	8fJ	.	.
=12	=12	=12	=12	=12	=12
4G	.	2G	8e-L	4cc	Lei-
.	.	.	16dL	.	.
.	.	.	16cJ	.	.
4GG	.	.	8d	4bn	.
.	.	.	8fJ	.	.
4C;	.	4G;	(8fL	4cc;	-den.
.	.	.	8en;J)	.	.
==|!	==|!	==|!	==|!	==|!	==|!
*-	*-	*-	*-	*-	*-
!!!RWG: Key is interpreted using the Humdrum key tool.
!!!URL-pdf: https://s9.imslp.org/files/imglnks/usimg/6/6b/IMSLP24489-PMLP09471-CCARH_Bach_Chorales.pdf#page=23 Musedata edition
!!!URL-pdf: https://s9.imslp.org/files/imglnks/usimg/7/7a/IMSLP04155-Bach_-_BGA_253-438.pdf#page=19 	Bach-Gesellschaft Ausgabe, Band 39 (pp.175-276) Leipzig: Breitkopf und Härtel, 1892. Plate B.W. XXXIX.
!!!END: 1994/05/13
!!!EMD: Converted from MuseData to Humdrum Dec 19, 2000, by Andreas Kornstaedt using muse2kern.
!!!EED: Craig Stuart Sapp
!!!EEV: 2024/03/31
!!!filter-keyboard: satb2gs
!!!title: @{OTL} (@{SCT})
